svg/color/hbar.svg

<svg width="64" height="65" viewBox="0 0 64 65" fill="none" xmlns="http://www.w3.org/2000/svg">
<rect y="0.303711" width="64" height="64" rx="32" fill="black"/>
<rect x="0.5" y="0.803711" width="63" height="63" rx="31.5" stroke="white" stroke-opacity="0.15"/>
<path d="M45.0078 46.1436H40.9441V37.5038H23.0558V46.1436H18.9918V18.1277H23.0558V26.5596H40.9441V18.1277H45.0081L45.0078 46.1436ZM23.2478 34.2716H41.1358V29.8077H23.2478V34.2716Z" fill="white"/>
</svg>

<svg xmlns="http://www.w3.org/2000/svg" width="64" height="65" fill="none" viewBox="0 0 64 65"><rect width="64" height="64" y=".304" fill="#000" rx="32"/><rect width="63" height="63" x=".5" y=".804" stroke="#fff" stroke-opacity=".15" rx="31.5"/><path fill="#fff" d="M45.008 46.144h-4.064v-8.64H23.056v8.64h-4.064V18.128h4.064v8.432h17.888v-8.432h4.064zm-21.76-11.872h17.888v-4.464H23.248z"/></svg>
